manuscript/resources/images/tweets-state-machine.svg

<svg xmlns="http://www.w3.org/2000/svg" id="graph-div" width="100%" height="100%" aria-roledescription="flowchart-v2" style="max-width:100%" viewBox="-8 -8 244.375 281"><style>@import url(https://cdnjs.cloudflare.com/ajax/libs/font-awesome/6.5.2/css/all.min.css);</style><marker id="graph-div_flowchart-pointEnd" class="marker flowchart" markerHeight="12" markerUnits="userSpaceOnUse" markerWidth="12" orient="auto" refX="6" refY="5" viewBox="0 0 10 10"><path stroke-dasharray="1 0" d="m0 0 10 5-10 5z" class="arrowMarkerPath"/></marker><marker id="graph-div_flowchart-pointStart" class="marker flowchart" markerHeight="12" markerUnits="userSpaceOnUse" markerWidth="12" orient="auto" refX="4.5" refY="5" viewBox="0 0 10 10"><path stroke-dasharray="1 0" d="m0 5 10 5V0z" class="arrowMarkerPath"/></marker><marker id="graph-div_flowchart-circleEnd" class="marker flowchart" markerHeight="11" markerUnits="userSpaceOnUse" markerWidth="11" orient="auto" refX="11" refY="5" viewBox="0 0 10 10"><circle cx="5" cy="5" r="5" stroke-dasharray="1 0" class="arrowMarkerPath"/></marker><marker id="graph-div_flowchart-circleStart" class="marker flowchart" markerHeight="11" markerUnits="userSpaceOnUse" markerWidth="11" orient="auto" refX="-1" refY="5" viewBox="0 0 10 10"><circle cx="5" cy="5" r="5" stroke-dasharray="1 0" class="arrowMarkerPath"/></marker><marker id="graph-div_flowchart-crossEnd" class="marker cross flowchart" markerHeight="11" markerUnits="userSpaceOnUse" markerWidth="11" orient="auto" refX="12" refY="5.2" viewBox="0 0 11 11"><path stroke-dasharray="1 0" stroke-width="2" d="m1 1 9 9m0-9-9 9" class="arrowMarkerPath"/></marker><marker id="graph-div_flowchart-crossStart" class="marker cross flowchart" markerHeight="11" markerUnits="userSpaceOnUse" markerWidth="11" orient="auto" refX="-1" refY="5.2" viewBox="0 0 11 11"><path stroke-dasharray="1 0" stroke-width="2" d="m1 1 9 9m0-9-9 9" class="arrowMarkerPath"/></marker><g class="root"><g class="edgePaths"><path id="L-A-B-0" fill="none" marker-end="url(#graph-div_flowchart-pointEnd)" d="M116.746 39v68.7" class="edge-thickness-normal edge-pattern-solid flowchart-link LS-A LE-B"/><path id="L-B-D-0" fill="none" marker-end="url(#graph-div_flowchart-pointEnd)" d="m95.316 152-6.778 6.167c-6.777 6.166-20.331 18.5-27.108 29.95-6.778 11.45-6.778 22.016-6.778 27.3v5.283" class="edge-thickness-normal edge-pattern-solid flowchart-link LS-B LE-D"/><path id="L-B-E-0" fill="none" marker-end="url(#graph-div_flowchart-pointEnd)" d="m138.177 152 6.777 6.167c6.777 6.166 20.331 18.5 27.109 29.95 6.777 11.45 6.777 22.016 6.777 27.3v5.283" class="edge-thickness-normal edge-pattern-solid flowchart-link LS-B LE-E"/></g><g class="edgeLabels"><g class="edgeLabel"><foreignObject width="34.008" height="24" class="label" transform="translate(99.742 64)"><div xmlns="http://www.w3.org/1999/xhtml" display="inline-block" style="white-space:nowrap"><span class="edgeLabel">Load</span></div></foreignObject></g><g class="edgeLabel"><foreignObject width="109.305" height="24" class="label" transform="translate(0 177)"><div xmlns="http://www.w3.org/1999/xhtml" display="inline-block" style="white-space:nowrap"><span class="edgeLabel">LoadingSuccess</span></div></foreignObject></g><g class="edgeLabel"><foreignObject width="99.07" height="24" class="label" transform="translate(129.305 177)"><div xmlns="http://www.w3.org/1999/xhtml" display="inline-block" style="white-space:nowrap"><span class="edgeLabel">LoadingFailed</span></div></foreignObject></g></g><g class="nodes"><g id="flowchart-A-2080" class="node default flowchart-label" data-id="A" data-node="true" transform="translate(116.746 19.5)"><rect width="41.813" height="39" x="-20.906" y="-19.5" class="basic label-container" rx="5" ry="5"/><g class="label" transform="translate(-13.406 -12)"><rect/><foreignObject width="26.813" height="24"><div xmlns="http://www.w3.org/1999/xhtml" display="inline-block" style="white-space:nowrap"><span class="nodeLabel">Idle</span></div></foreignObject></g></g><g id="flowchart-B-2081" class="node default flowchart-label" data-id="B" data-node="true" transform="translate(116.746 132.5)"><rect width="70.344" height="39" x="-35.172" y="-19.5" class="basic label-container" rx="5" ry="5"/><g class="label" transform="translate(-27.672 -12)"><rect/><foreignObject width="55.344" height="24"><div xmlns="http://www.w3.org/1999/xhtml" display="inline-block" style="white-space:nowrap"><span class="nodeLabel">Loading</span></div></foreignObject></g></g><g id="flowchart-D-2083" class="node default flowchart-label" data-id="D" data-node="true" transform="translate(54.652 245.5)"><rect width="57.602" height="39" x="-28.801" y="-19.5" class="basic label-container" rx="5" ry="5"/><g class="label" transform="translate(-21.3 -12)"><rect/><foreignObject width="42.602" height="24"><div xmlns="http://www.w3.org/1999/xhtml" display="inline-block" style="white-space:nowrap"><span class="nodeLabel">Ready</span></div></foreignObject></g></g><g id="flowchart-E-2085" class="node default flowchart-label" data-id="E" data-node="true" transform="translate(178.84 245.5)"><rect width="58.727" height="39" x="-29.363" y="-19.5" class="basic label-container" rx="5" ry="5"/><g class="label" transform="translate(-21.863 -12)"><rect/><foreignObject width="43.727" height="24"><div xmlns="http://www.w3.org/1999/xhtml" display="inline-block" style="white-space:nowrap"><span class="nodeLabel">Failed</span></div></foreignObject></g></g></g></g></svg>

<svg aria-roledescription="flowchart-v2" role="graphics-document document" viewBox="-8 -8 244.375 281" style="max-width: 100%;" xmlns="http://www.w3.org/2000/svg" width="100%" id="graph-div" height="100%" xmlns:xlink="http://www.w3.org/1999/xlink"><style>@import url("https://cdnjs.cloudflare.com/ajax/libs/font-awesome/6.5.2/css/all.min.css");'</style><style>#graph-div{font-family:"trebuchet ms",verdana,arial,sans-serif;font-size:16px;fill:#333;}#graph-div .error-icon{fill:#552222;}#graph-div .error-text{fill:#552222;stroke:#552222;}#graph-div .edge-thickness-normal{stroke-width:2px;}#graph-div .edge-thickness-thick{stroke-width:3.5px;}#graph-div .edge-pattern-solid{stroke-dasharray:0;}#graph-div .edge-pattern-dashed{stroke-dasharray:3;}#graph-div .edge-pattern-dotted{stroke-dasharray:2;}#graph-div .marker{fill:#333333;stroke:#333333;}#graph-div .marker.cross{stroke:#333333;}#graph-div svg{font-family:"trebuchet ms",verdana,arial,sans-serif;font-size:16px;}#graph-div .label{font-family:"trebuchet ms",verdana,arial,sans-serif;color:#333;}#graph-div .cluster-label text{fill:#333;}#graph-div .cluster-label span,#graph-div p{color:#333;}#graph-div .label text,#graph-div span,#graph-div p{fill:#333;color:#333;}#graph-div .node rect,#graph-div .node circle,#graph-div .node ellipse,#graph-div .node polygon,#graph-div .node path{fill:#ECECFF;stroke:#9370DB;stroke-width:1px;}#graph-div .flowchart-label text{text-anchor:middle;}#graph-div .node .katex path{fill:#000;stroke:#000;stroke-width:1px;}#graph-div .node .label{text-align:center;}#graph-div .node.clickable{cursor:pointer;}#graph-div .arrowheadPath{fill:#333333;}#graph-div .edgePath .path{stroke:#333333;stroke-width:2.0px;}#graph-div .flowchart-link{stroke:#333333;fill:none;}#graph-div .edgeLabel{background-color:#e8e8e8;text-align:center;}#graph-div .edgeLabel rect{opacity:0.5;background-color:#e8e8e8;fill:#e8e8e8;}#graph-div .labelBkg{background-color:rgba(232, 232, 232, 0.5);}#graph-div .cluster rect{fill:#ffffde;stroke:#aaaa33;stroke-width:1px;}#graph-div .cluster text{fill:#333;}#graph-div .cluster span,#graph-div p{color:#333;}#graph-div div.mermaidTooltip{position:absolute;text-align:center;max-width:200px;padding:2px;font-family:"trebuchet ms",verdana,arial,sans-serif;font-size:12px;background:hsl(80, 100%, 96.2745098039%);border:1px solid #aaaa33;border-radius:2px;pointer-events:none;z-index:100;}#graph-div .flowchartTitleText{text-anchor:middle;font-size:18px;fill:#333;}#graph-div :root{--mermaid-font-family:"trebuchet ms",verdana,arial,sans-serif;}</style><g><marker orient="auto" markerHeight="12" markerWidth="12" markerUnits="userSpaceOnUse" refY="5" refX="6" viewBox="0 0 10 10" class="marker flowchart" id="graph-div_flowchart-pointEnd"><path style="stroke-width: 1; stroke-dasharray: 1, 0;" class="arrowMarkerPath" d="M 0 0 L 10 5 L 0 10 z"></path></marker><marker orient="auto" markerHeight="12" markerWidth="12" markerUnits="userSpaceOnUse" refY="5" refX="4.5" viewBox="0 0 10 10" class="marker flowchart" id="graph-div_flowchart-pointStart"><path style="stroke-width: 1; stroke-dasharray: 1, 0;" class="arrowMarkerPath" d="M 0 5 L 10 10 L 10 0 z"></path></marker><marker orient="auto" markerHeight="11" markerWidth="11" markerUnits="userSpaceOnUse" refY="5" refX="11" viewBox="0 0 10 10" class="marker flowchart" id="graph-div_flowchart-circleEnd"><circle style="stroke-width: 1; stroke-dasharray: 1, 0;" class="arrowMarkerPath" r="5" cy="5" cx="5"></circle></marker><marker orient="auto" markerHeight="11" markerWidth="11" markerUnits="userSpaceOnUse" refY="5" refX="-1" viewBox="0 0 10 10" class="marker flowchart" id="graph-div_flowchart-circleStart"><circle style="stroke-width: 1; stroke-dasharray: 1, 0;" class="arrowMarkerPath" r="5" cy="5" cx="5"></circle></marker><marker orient="auto" markerHeight="11" markerWidth="11" markerUnits="userSpaceOnUse" refY="5.2" refX="12" viewBox="0 0 11 11" class="marker cross flowchart" id="graph-div_flowchart-crossEnd"><path style="stroke-width: 2; stroke-dasharray: 1, 0;" class="arrowMarkerPath" d="M 1,1 l 9,9 M 10,1 l -9,9"></path></marker><marker orient="auto" markerHeight="11" markerWidth="11" markerUnits="userSpaceOnUse" refY="5.2" refX="-1" viewBox="0 0 11 11" class="marker cross flowchart" id="graph-div_flowchart-crossStart"><path style="stroke-width: 2; stroke-dasharray: 1, 0;" class="arrowMarkerPath" d="M 1,1 l 9,9 M 10,1 l -9,9"></path></marker><g class="root"><g class="clusters"></g><g class="edgePaths"><path marker-end="url(#graph-div_flowchart-pointEnd)" style="fill:none;" class="edge-thickness-normal edge-pattern-solid flowchart-link LS-A LE-B" id="L-A-B-0" d="M116.746,39L116.746,45.167C116.746,51.333,116.746,63.667,116.746,75.117C116.746,86.567,116.746,97.133,116.746,102.417L116.746,107.7"></path><path marker-end="url(#graph-div_flowchart-pointEnd)" style="fill:none;" class="edge-thickness-normal edge-pattern-solid flowchart-link LS-B LE-D" id="L-B-D-0" d="M95.316,152L88.538,158.167C81.761,164.333,68.207,176.667,61.43,188.117C54.652,199.567,54.652,210.133,54.652,215.417L54.652,220.7"></path><path marker-end="url(#graph-div_flowchart-pointEnd)" style="fill:none;" class="edge-thickness-normal edge-pattern-solid flowchart-link LS-B LE-E" id="L-B-E-0" d="M138.177,152L144.954,158.167C151.731,164.333,165.285,176.667,172.063,188.117C178.84,199.567,178.84,210.133,178.84,215.417L178.84,220.7"></path></g><g class="edgeLabels"><g transform="translate(116.74609375, 76)" class="edgeLabel"><g transform="translate(-17.00390625, -12)" class="label"><foreignObject height="24" width="34.0078125"><div style="display: inline-block; white-space: nowrap;" xmlns="http://www.w3.org/1999/xhtml"><span class="edgeLabel">Load</span></div></foreignObject></g></g><g transform="translate(54.65234375, 189)" class="edgeLabel"><g transform="translate(-54.65234375, -12)" class="label"><foreignObject height="24" width="109.3046875"><div style="display: inline-block; white-space: nowrap;" xmlns="http://www.w3.org/1999/xhtml"><span class="edgeLabel">LoadingSuccess</span></div></foreignObject></g></g><g transform="translate(178.83984375, 189)" class="edgeLabel"><g transform="translate(-49.53515625, -12)" class="label"><foreignObject height="24" width="99.0703125"><div style="display: inline-block; white-space: nowrap;" xmlns="http://www.w3.org/1999/xhtml"><span class="edgeLabel">LoadingFailed</span></div></foreignObject></g></g></g><g class="nodes"><g transform="translate(116.74609375, 19.5)" data-id="A" data-node="true" id="flowchart-A-18" class="node default default flowchart-label"><rect height="39" width="41.8125" y="-19.5" x="-20.90625" ry="5" rx="5" style="" class="basic label-container"></rect><g transform="translate(-13.40625, -12)" style="" class="label"><rect></rect><foreignObject height="24" width="26.8125"><div style="display: inline-block; white-space: nowrap;" xmlns="http://www.w3.org/1999/xhtml"><span class="nodeLabel">Idle</span></div></foreignObject></g></g><g transform="translate(116.74609375, 132.5)" data-id="B" data-node="true" id="flowchart-B-19" class="node default default flowchart-label"><rect height="39" width="70.34375" y="-19.5" x="-35.171875" ry="5" rx="5" style="" class="basic label-container"></rect><g transform="translate(-27.671875, -12)" style="" class="label"><rect></rect><foreignObject height="24" width="55.34375"><div style="display: inline-block; white-space: nowrap;" xmlns="http://www.w3.org/1999/xhtml"><span class="nodeLabel">Loading</span></div></foreignObject></g></g><g transform="translate(54.65234375, 245.5)" data-id="D" data-node="true" id="flowchart-D-21" class="node default default flowchart-label"><rect height="39" width="57.6015625" y="-19.5" x="-28.80078125" ry="5" rx="5" style="" class="basic label-container"></rect><g transform="translate(-21.30078125, -12)" style="" class="label"><rect></rect><foreignObject height="24" width="42.6015625"><div style="display: inline-block; white-space: nowrap;" xmlns="http://www.w3.org/1999/xhtml"><span class="nodeLabel">Ready</span></div></foreignObject></g></g><g transform="translate(178.83984375, 245.5)" data-id="E" data-node="true" id="flowchart-E-23" class="node default default flowchart-label"><rect height="39" width="58.7265625" y="-19.5" x="-29.36328125" ry="5" rx="5" style="" class="basic label-container"></rect><g transform="translate(-21.86328125, -12)" style="" class="label"><rect></rect><foreignObject height="24" width="43.7265625"><div style="display: inline-block; white-space: nowrap;" xmlns="http://www.w3.org/1999/xhtml"><span class="nodeLabel">Failed</span></div></foreignObject></g></g></g></g></g></svg>
